icons/folder_type_circleci_opened.svg

<svg xmlns="http://www.w3.org/2000/svg" viewBox="0 0 32 32"><path d="M27.4 5.5h-9.2l-2.1 4.2H4.3v16.8h25.2v-21Zm0 18.7H6.6V11.8h20.8Zm0-14.5h-8.2l1-2.1h7.1v2.1Z" style="fill:#7bc2db"/><path d="M25.7 13.7H.5l3.8 12.8h25.2l-3.8-12.8z" style="fill:#7bc2db"/><path d="M17.944 20.5a2.5 2.5 0 1 1 2.5 2.5 2.5 2.5 0 0 1-2.5-2.5Zm2.5-10.5a10.51 10.51 0 0 0-10.173 7.9.324.324 0 0 0-.01.1.5.5 0 0 0 .5.5h4.231a.484.484 0 0 0 .45-.294 5.5 5.5 0 1 1 0 4.574.513.513 0 0 0-.45-.294h-4.229a.5.5 0 0 0-.5.5c0 .031.01.063.01.1A10.5 10.5 0 1 0 20.443 10Z" style="fill:#064c64"/></svg>

<svg xmlns="http://www.w3.org/2000/svg" viewBox="0 0 32 32"><title>folder_type_circleci_opened</title><path d="M27.4,5.5H18.2L16.1,9.7H4.3V26.5H29.5V5.5Zm0,18.7H6.6V11.8H27.4Zm0-14.5H19.2l1-2.1h7.1V9.7Z" style="fill:#7bc2db"/><polygon points="25.7 13.7 0.5 13.7 4.3 26.5 29.5 26.5 25.7 13.7" style="fill:#7bc2db"/><path d="M17.944,20.5a2.5,2.5,0,1,1,2.5,2.5,2.5,2.5,0,0,1-2.5-2.5Zm2.5-10.5a10.51,10.51,0,0,0-10.173,7.9.324.324,0,0,0-.01.1.5.5,0,0,0,.5.5h4.231a.484.484,0,0,0,.45-.294h0a5.5,5.5,0,1,1,0,4.574h0a.513.513,0,0,0-.45-.294H10.763a.5.5,0,0,0-.5.5h0c0,.031.01.063.01.1A10.5,10.5,0,1,0,20.443,10Z" style="fill:#064c64"/></svg>
